!!!!SEGMENT: pl-kk--kk-i-343--003_gorczycki-grzegorz-gerwazy--deo-gratias.krn
!!!cenid: 17xx:2156
!!!COM: Gorczycki, Grzegorz Gerwazy
!!!COM-rismid: pe30009207
!!!CDT: ~1666-1734/04/30
!!!CNT: Polish
!!!OTL: Deo gratias
!!!PDT:
!!!AGN: Sacred
!!!SMS-siglum: PL-Kk
!!!SMS-shelfmark: Kk.I.343
!!!SMS-shelfwork: 003 W
!!!SMS-variant:
!!!SMS-altvar:
!!!NIFC-rismid: 1001145414
!!!URL-scan: http://repozytorium.nifc.pl/skany/pl-kk-nut--i-343
!!!ONB-nifc: UWAGA: utwory w zbiorze: 1. Judica me Deus, 2. Domine ne longe faciam, 3. Deo gratias
**kern	**text	**fba	**kern	**text	**kern	**text	**kern	**text	**kern	**text
*part5	*part5	*part5	*part4	*part4	*part3	*part3	*part2	*part2	*part1	*part1
*staff5	*staff5	*staff5	*staff4	*staff4	*staff3	*staff3	*staff2	*staff2	*staff1	*staff1
*group1	*	*	*group1	*	*group1	*	*group1	*	*group1	*
*I"Baſso Continuo pro Org	*	*	*I"Baſso.	*	*I"Tenore.	*	*I"Alto	*	*I"Canto.	*
*I'B pro org	*	*	*I'B	*	*I'T	*	*I'A	*	*I'S	*
*clefF4	*	*	*clefF4	*	*clefC4	*	*clefC3	*	*clefC1	*
*k[b-]	*	*	*k[b-]	*	*k[b-]	*	*k[b-]	*	*k[b-]	*
*M2/1	*	*	*M2/1	*	*M2/1	*	*M2/1	*	*M2/1	*
*met(C|)	*	*	*met(C|)	*	*met(C|)	*	*met(C)	*	*met(C|)	*
*	*	*	*	*	*	*	*all\right	*	*	*
=1-	=1-	=1-	=1-	=1-	=1-	=1-	=1-	=1-	=1-	=1-
*	*	*	*	*	*lig	*	*	*	*	*
!LO:TX:a:t=Benedicam(us) \nD(omi)no.	!	!	!	!	!LO:TX:a:t=Benedicamus D(omi)no \ntempore Paſsionis	!	!LO:TX:a:t=Benedicam(us) \nD(omi)no	!	!LO:TX:a:t=Benedicam(us) \nD(omi)no.	!
!LO:TX:b:t=Deo gratias	!	!	!	!	!	!	!LO:TX:t=P:problem:kreska pseudotaktowa	!	!	!
1F	.	.	00r	De-	1F	De-	0r	.	00r	.
!LO:TX:t=P:problem:kreska pseudotaktowa	!	!	!	!	!	!	!	!	!	!
1G	.	7	.	-o	1G	.	.	.	.	.
.	.	6	.	.	.	.	.	.	.	.
*	*	*	*	*	*Xlig	*	*	*	*	*
=2-	=2-	=2-	=2-	=2-	=2-	=2-	=2-	=2-	=2-	=2-
*	*	*	*	*	*lig	*	*	*	*	*
!	!	!	!	!	!	!	!LO:TX:t=P:problem:kreska pseudotaktowa	!	!	!
1A	.	6	.	gra-	1A	.	1c	De-	.	.
*	*	*	*	*	*	*	*2\right	*	*	*
!LO:TX:t=P:problem:kreska pseudotaktowa	!	!	!	!	!	!	!	!	!	!
1G	.	5	.	-ti-	1G	.	2.d\	.	.	.
.	.	6	.	.	.	.	.	.	.	.
!	!	!	!	!	!	!	!LO:TX:t=P:problem:kreska pseudotaktowa	!	!	!
.	.	.	.	.	.	.	4e\	.	.	.
*	*	*	*	*	*Xlig	*	*	*	*	*
=3-	=3-	=3-	=3-	=3-	=3-	=3-	=3-	=3-	=3-	=3-
*	*	*	*	*	*lig	*	*	*	*	*
1A	.	6	0r	-as	1A	.	2.f\	.	1f	De-
!	!	!	!	!	!	!	!LO:TX:t=P:problem:kreska pseudotaktowa	!	!	!
.	.	.	.	.	.	.	4e\	.	.	.
!LO:TX:t=P:problem:kreska pseudotaktowa	!	!	!	!	!	!	!	!	!	!
1B-	.	6	.	.	1B-	.	4d\	.	1g	.
.	.	.	.	.	.	.	4c\	.	.	.
.	.	.	.	.	.	.	4d\	.	.	.
!	!	!	!	!	!	!	!LO:TX:t=P:problem:kreska pseudotaktowa	!	!	!
.	.	.	.	.	.	.	4e\	.	.	.
*	*	*	*	*	*Xlig	*	*	*	*	*
=4-	=4-	=4-	=4-	=4-	=4-	=4-	=4-	=4-	=4-	=4-
*	*	*	*	*	*lig	*	*	*	*	*
!	!	!	!LO:TX:t=P:problem:kreska pseudotaktowa	!	!	!	!	!	!	!
1A	.	6	1r	.	1A	.	4f\	.	4a\	.
.	.	.	.	.	.	.	4c\	.	4g\	.
.	.	.	.	.	.	.	1f	.	4a\	.
.	.	.	.	.	.	.	.	.	4f/	.
!LO:TX:t=P:problem:kreska pseudotaktowa	!	!	!LO:TX:t=P:problem:kreska pseudotaktowa	!	!	!	!	!	!	!
*	*	*below	*	*	*	*	*	*	*	*
1G 1C	.	4:3	1C	De-	1G	.	.	.	2g/	.
!	!	!	!	!	!	!	!LO:TX:t=P:problem:kreska pseudotaktowa	!	!	!
.	.	.	.	.	.	.	2e\	-o	1cc\	.
*	*	*above	*2\right	*	*Xlig	*	*	*	*	*
=5-	=5-	=5-	=5-	=5-	=5-	=5-	=5-	=5-	=5-	=5-
2.D/	.	7	2.D\	.	1F	-o	2d\	gra-	.	.
.	.	6-	.	.	.	.	.	.	.	.
*	*	*	*	*	*	*	*	*	*2\right	*
!	!	!	!	!	!	!	!LO:TX:t=P:problem:kreska pseudotaktowa	!	!LO:TX:t=P:problem:kreska pseudotaktowa	!
.	.	.	.	.	.	.	2d\	-ti-	2b-\	.
!	!	!	!LO:TX:t=P:problem:kreska pseudotaktowa	!	!	!	!	!	!	!
4E\	.	.	4E\	.	.	.	.	.	.	.
*	*	*	*	*	*lig	*	*	*	*	*
!	!	!	!	!	!	!	!LO:TX:t=P:problem:kreska pseudotaktowa	!	!	!
4F\	.	.	4F\	.	1A	gra-	1c	-as	2a\	.
4C\	.	.	4C\	.	.	.	.	.	.	.
1F\	.	4 2	1F\	.	.	.	.	.	2f/	.
=6-	=6-	=6-	=6-	=6-	=6-	=6-	=6-	=6-	=6-	=6-
.	.	.	.	.	1G	.	2r	.	2g/	.
!	!	!	!	!	!	!	!LO:TX:t=P:problem:kreska pseudotaktowa	!	!	!
*2\right	*	*	*	*	*	*	*	*	*	*
2E\	.	6	2E\	.	.	.	2c/	De-	1cc	.
*	*	*	*	*	*Xlig	*	*	*	*	*
*	*	*	*	*	*lig	*	*	*	*	*
!LO:TX:t=P:problem:kreska pseudotaktowa	!	!	!LO:TX:t=P:problem:kreska pseudotaktowa	!	!LO:LB:g=original	!	!LO:TX:t=P:problem:kreska pseudotaktowa	!	!	!
!LO:LB:g=original	!	!	!	!	!	!	!	!	!	!
1D	.	7	1D	.	1F	.	1d	.	.	.
.	.	6#	.	.	.	.	.	.	.	.
!	!	!	!	!	!	!	!	!	!LO:TX:t=P:problem:kreska pseudotaktowa	!
!	!	!	!	!	!	!	!	!	!LO:N:acc=#	!
.	.	.	.	.	.	.	.	.	2bn\	.
=7-	=7-	=7-	=7-	=7-	=7-	=7-	=7-	=7-	=7-	=7-
2.C/	.	.	2.C/	.	1E	.	4e\	.	2cc\	-o
.	.	.	.	.	.	.	4d\	.	.	.
.	.	.	.	.	.	.	4e\	.	2g/	gra-
!	!	!	!LO:TX:t=P:problem:kreska pseudotaktowa	!	!	!	!LO:TX:t=P:problem:kreska pseudotaktowa	!	!	!
4BB-/	.	.	4BB-/	.	.	.	4c\	.	.	.
*	*	*	*	*	*Xlig	*	*	*	*	*
*	*	*	*	*	*lig	*	*	*	*	*
!	!	!	!	!	!	!	!LO:LB:g=original	!	!	!
4AA/	.	6	4AA/	.	1F	.	2f\	.	1a	.
4GG/	.	.	4GG/	.	.	.	.	.	.	.
!	!	!	!	!	!	!	!LO:TX:t=P:problem:kreska pseudotaktowa	!	!	!
4AA/	.	.	4AA/	.	.	.	2c\	.	.	.
!LO:TX:t=P:problem:kreska pseudotaktowa	!	!	!LO:TX:t=P:problem:kreska pseudotaktowa	!	!	!	!	!	!	!
4FF/	.	.	4FF/	.	.	.	.	.	.	.
!	!	!	!LO:LB:g=original	!	!	!	!	!	!	!
=8-	=8-	=8-	=8-	=8-	=8-	=8-	=8-	=8-	=8-	=8-
!	!	!	!	!	!	!	!LO:TX:t=P:problem:kreska pseudotaktowa	!	!LO:LB:g=original	!
2BB-/	.	.	2BB-/	.	1D	.	1d	.	1b-y	.
2GG/	.	.	2GG/	.	.	.	.	.	.	.
*	*	*	*	*	*Xlig	*	*	*	*	*
*	*	*	*	*	*lig	*	*	*	*	*
2AA/	.	6	2AA/	.	1F	.	2c\	-o	1a	.
!LO:TX:t=P:problem:kreska pseudotaktowa	!	!	!LO:TX:t=P:problem:kreska pseudotaktow	!	!	!	!LO:TX:t=P:problem:kreska pseudotaktowa	!	!	!
2BB-/	.	.	2BB-/	-o	.	.	2d\	gra-	.	.
=9-	=9-	=9-	=9-	=9-	=9-	=9-	=9-	=9-	=9-	=9-
2.C/	.	.	2.C/	gra-	1E	.	2.e\	.	2g/	.
.	.	.	.	.	.	.	.	.	1cc	.
!	!	!	!LO:TX:t=P:problem:kreska pseudotaktowa	!	!	!	!LO:TX:t=P:problem:kreska pseudotaktowa	!	!	!
4D/	.	.	4D/	.	.	.	4d\	.	.	.
*	*	*	*	*	*Xlig	*	*	*	*	*
*	*	*	*	*	*lig	*	*	*	*	*
2E\	.	6	2E\	.	1G	.	2c\	.	.	.
!LO:TX:t=P:problem:kreska pseudotaktowa	!	!	!LO:TX:t=P:problem:kreska pseudotaktowa	!	!	!	!LO:TX:t=P:problem:kreska pseudotaktowa	!	!LO:TX:t=P:problem:kreska pseudotaktowa	!
2C/	.	.	2C/	.	.	.	2e\	.	2b-\	.
=10-	=10-	=10-	=10-	=10-	=10-	=10-	=10-	=10-	=10-	=10-
!	!	!	!	!	!	!	!LO:TX:t=P:problem:kreska pseudotaktowa	!	!	!
2F\	.	.	2F\	.	1A	.	1f	.	2a\	.
!	!	!	!LO:TX:t=P:problem:kreska pseudotaktowa	!	!	!	!	!	!	!
2AA/	.	6	2AA/	.	.	.	.	.	2f/	.
*	*	*	*	*	*Xlig	*	*	*	*	*
!	!	!	!	!	!	!	!LO:TX:t=P:problem:kreska pseudotaktowa	!	!	!
1BB-	.	6 5	1BB-	.	1G	.	1d	.	1b-	.
=11-	=11-	=11-	=11-	=11-	=11-	=11-	=11-	=11-	=11-	=11-
!LO:TX:t=P:problem:kreska pseudotaktowa	!	!	!	!	!	!	!	!	!	!
1C	.	3	2C	.	1E	-ti-	2c/	.	2g/	.
!	!	!	!LO:TX:t=P:problem:kreska pseudotaktowa	!	!	!	!LO:TX:t=P:problem:kreska pseudotaktowa	!	!LO:TX:t=P:problem:kreska pseudotaktowa	!
.	.	.	2C	-ti-	.	.	2c/	-ti-	2g/	-ti-
2FF/	.	.	2FF/	-as	[1Fl\	-as.	2c/	-as	2a\	-as
1BB-/	.	.	1BB-/	De-	.	.	1d\	De-	1b-\	De-
=12-	=12-	=12-	=12-	=12-	=12-	=12-	=12-	=12-	=12-	=12-
.	.	.	.	.	0F_	.	.	.	.	.
!	!	!	!LO:TX:t=P:problem:kreska pseudotaktowa	!	!	!	!LO:TX:t=P:problem:kreska pseudotaktowa	!	!	!
2AA/	.	.	2AA/	-o	.	.	2c/	-o	2f/	-o
!	!	!	!LO:LB:g=original	!	!	!	!	!	!	!
1.BB-	.	.	1.BB-	Gra-	.	.	1.d	gra-	1.b-	gra-
=13-	=13-	=13-	=13-	=13-	=13-	=13-	=13-	=13-	=13-	=13-
.	.	.	.	.	0F]	.	.	.	.	.
!	!	!	!LO:TX:t=P:problem:kreska pseudotaktowa	!	!	!	!LO:TX:t=P:problem:kreska pseudotaktowa	!	!LO:TX:t=P:problem:kreska pseudotaktowa	!
2BB-/	.	.	2BB-/	-ti-	.	.	2d\	-ti-	2b-\	-ti-
1FFl;<	.	.	1FFl	-as.	.	.	1dl;;	-as	1al;;	-as.
==	==	==	==	==	==	==	==	==	==	==
*-	*-	*-	*-	*-	*-	*-	*-	*-	*-	*-
!!!system-decoration: [g1]
!!!RDF**kern: > = above
!!!RDF**kern: < = below
!!!RDF**kern: l = terminal long
!!!ENC: Andrzej Kubiczek
!!!END: 2021-03-25
!!!ENC: Berenika Jozajtis
!!!END: 2021-03-23
